SVG/img-revolution-6.svg

<svg width="124" height="59" viewBox="0 0 124 59" fill="none" xmlns="http://www.w3.org/2000/svg">
<path d="M43.33 13.1149L46.78 22.4049C47.77 25.0649 49.87 27.1749 52.54 28.1649L61.83 31.6149C62.59 31.8949 62.59 32.9649 61.83 33.2449L52.54 36.6949C49.88 37.6849 47.77 39.7849 46.78 42.4549L43.33 51.7449C43.05 52.5049 41.98 52.5049 41.7 51.7449L38.25 42.4549C37.26 39.7949 35.16 37.6849 32.49 36.6949L23.2 33.2449C22.44 32.9649 22.44 31.8949 23.2 31.6149L32.49 28.1649C35.15 27.1749 37.26 25.0749 38.25 22.4049L41.7 13.1149C41.98 12.3549 43.05 12.3549 43.33 13.1149Z" fill="#07E993"/>
<path d="M16 0.405L18.46 7.035C19.17 8.935 20.67 10.435 22.57 11.145L29.2 13.605C29.74 13.805 29.74 14.565 29.2 14.765L22.57 17.225C20.67 17.935 19.17 19.435 18.46 21.335L16 27.965C15.8 28.505 15.04 28.505 14.84 27.965L12.38 21.335C11.67 19.435 10.17 17.935 8.26999 17.225L1.63999 14.765C1.09999 14.565 1.09999 13.805 1.63999 13.605L8.26999 11.145C10.17 10.435 11.67 8.935 12.38 7.035L14.83 0.405C15.03 -0.135 15.79 -0.135 15.99 0.405H16Z" fill="#07E993"/>
<path d="M10.97 37.8859L12.8 42.8159C13.33 44.2259 14.44 45.3459 15.85 45.8659L20.78 47.6959C21.18 47.8459 21.18 48.4159 20.78 48.5559L15.85 50.3859C14.44 50.9159 13.32 52.0259 12.8 53.4359L10.97 58.3659C10.82 58.7659 10.25 58.7659 10.11 58.3659L8.28 53.4359C7.75 52.0259 6.64 50.9059 5.23 50.3859L0.3 48.5559C-0.1 48.4059 -0.1 47.8359 0.3 47.6959L5.23 45.8659C6.64 45.3359 7.76 44.2259 8.28 42.8159L10.11 37.8859C10.26 37.4859 10.83 37.4859 10.97 37.8859Z" fill="#07E993"/>
<path d="M105.23 50.4645L102.37 42.2445H84.99L82.13 50.4645H74.84L89.65 9.64453H97.7L112.45 50.4645H105.22H105.23ZM87.22 35.9445H100.16L93.69 17.5145L87.22 35.9445Z" fill="#07E993"/>
<path d="M116.84 9.64453H123.55V50.4645H116.84V9.64453Z" fill="#07E993"/>
</svg>

<?xml version="1.0" encoding="UTF-8"?>
<svg id="Layer_2" data-name="Layer 2" xmlns="http://www.w3.org/2000/svg" xmlns:xlink="http://www.w3.org/1999/xlink" viewBox="0 0 123.54 58.66">
  <defs>
    <style>
      .cls-1 {
        fill: url(#linear-gradient);
      }

      .cls-1, .cls-2, .cls-3, .cls-4, .cls-5 {
        stroke-width: 0px;
      }

      .cls-2 {
        fill: url(#linear-gradient-4);
      }

      .cls-3 {
        fill: url(#linear-gradient-2);
      }

      .cls-4 {
        fill: url(#linear-gradient-3);
      }

      .cls-5 {
        fill: url(#linear-gradient-5);
      }
    </style>
    <linearGradient id="linear-gradient" x1="34.35" y1="50.84" x2="56.84" y2=".14" gradientUnits="userSpaceOnUse">
      <stop offset="0" stop-color="red"/>
      <stop offset="1" stop-color="#464961"/>
    </linearGradient>
    <linearGradient id="linear-gradient-2" x1="4.94" y1="37.79" x2="27.43" y2="-12.9" xlink:href="#linear-gradient"/>
    <linearGradient id="linear-gradient-3" x1="13.45" y1="41.56" x2="35.94" y2="-9.13" xlink:href="#linear-gradient"/>
    <linearGradient id="linear-gradient-4" x1="82.39" y1="72.15" x2="104.88" y2="21.46" xlink:href="#linear-gradient"/>
    <linearGradient id="linear-gradient-5" x1="98.37" y1="79.24" x2="120.86" y2="28.54" xlink:href="#linear-gradient"/>
  </defs>
  <g id="Design">
    <g>
      <path class="cls-1" d="M43.33,13.11l3.45,9.29c.99,2.66,3.09,4.77,5.76,5.76l9.29,3.45c.76.28.76,1.35,0,1.63l-9.29,3.45c-2.66.99-4.77,3.09-5.76,5.76l-3.45,9.29c-.28.76-1.35.76-1.63,0l-3.45-9.29c-.99-2.66-3.09-4.77-5.76-5.76l-9.29-3.45c-.76-.28-.76-1.35,0-1.63l9.29-3.45c2.66-.99,4.77-3.09,5.76-5.76l3.45-9.29c.28-.76,1.35-.76,1.63,0Z"/>
      <path class="cls-3" d="M16,.4l2.46,6.63c.71,1.9,2.21,3.4,4.11,4.11l6.63,2.46c.54.2.54.96,0,1.16l-6.63,2.46c-1.9.71-3.4,2.21-4.11,4.11l-2.46,6.63c-.2.54-.96.54-1.16,0l-2.46-6.63c-.71-1.9-2.21-3.4-4.11-4.11l-6.63-2.46c-.54-.2-.54-.96,0-1.16l6.63-2.46c1.9-.71,3.4-2.21,4.11-4.11L14.83.4c.2-.54.96-.54,1.16,0Z"/>
      <path class="cls-4" d="M10.97,37.88l1.83,4.93c.53,1.41,1.64,2.53,3.05,3.05l4.93,1.83c.4.15.4.72,0,.86l-4.93,1.83c-1.41.53-2.53,1.64-3.05,3.05l-1.83,4.93c-.15.4-.72.4-.86,0l-1.83-4.93c-.53-1.41-1.64-2.53-3.05-3.05l-4.93-1.83c-.4-.15-.4-.72,0-.86l4.93-1.83c1.41-.53,2.53-1.64,3.05-3.05l1.83-4.93c.15-.4.72-.4.86,0Z"/>
      <g>
        <path class="cls-2" d="M105.23,50.46l-2.86-8.22h-17.38l-2.86,8.22h-7.29l14.81-40.82h8.05l14.75,40.82h-7.23ZM87.22,35.94h12.94l-6.47-18.43-6.47,18.43Z"/>
        <path class="cls-5" d="M116.84,9.64h6.71v40.82h-6.71V9.64Z"/>
      </g>
    </g>
  </g>
</svg>
